X: 59
T:Mairi's Wedding
M:2/4
L:1/8
S:AB:||B
R:Reel
K:D % 2 sharps
G||:A>A AB|de f2|ed Bd|fe f2|A>A AB|de f2|ed BG|A2 A2|!
a>a ab|ag f2|ed Bd|f>e fa|A>A AB|de f2|ed BG|A2 A:||!
d/4e/4f/4g/4|a>a ab|ag f2|ed Bd|f>e fa|A>A AB|de f2|ed BG|A2 A||
% <A name="D1X060"></A>

